!!!COM: Bach, Johann Sebastian
!!!OCL: Ludwig Erk
!!!XEN: J.S. Bach Chorale Harmonizations
!!!OTL: Valet will ich dir geben
!!!ONM: No. 24
!!!PDT: 1850, 1865
!!!SCT: BWV 454
!!!YEC: Copyright 1994, David Huron
!!!YEM: Rights to all derivative electronic formats reserved.
!! J.S. Bach, 4-part Chorale harmonization No. 24
**kern
! soprano
*M4/4
*D:
4d
.
=1
4a
.
4a
.
4b
.
4cc#
.
=2
2dd
.
.
.
4dd;
4ff#
.
=3
4ee
4dd
.
4dd
4cc#
=4
2.dd;
!! Repeat from the beginning.
4d
.
=1
4a
.
4a
.
4b
.
4cc#
.
=2
2dd
.
.
.
4dd;
4ff#
.
=3
4ee
4dd
.
4dd
4cc#
=4
2.dd;
!! Continuing.
8dd
8ee
=5
4ff#
.
4ff#
.
[4ee
.
8ee]
8dd
=6
8cc#
8b
4cc#
.
4a;
4cc#
.
=7
4dd
.
4cc#
.
4b
.
4b
.
=8
2.a;
4a
=9
8f#
8g
4a
.
4b
.
4a
.
=10
4a
8g
8f#
4f#;
4a
=11
4g
.
4f#
.
4e
.
4e
.
=12
2.d;
====
*-
!!!CDT: 1685/3//-1750/7/28
!!!OCY: Deutschland
!!!ODT: <1750
!!!PDT: 1784/-1787/
!!!AFR: chorale harmonization; four-part hymn
!!!AST: homophony
!!!AMT: simple quadruple
!!!SCA: Bach-Werke-Verzeichnis
!!!YOR: Ludwig Erk, Peters Editions of 1850, 1865; revised in light of
!!!YOR: Friedrich Smend, Peters Edition of 1932 & Albert Riemenschneider, 1941.
!!!AIN: vox
!!!EEV: 1.0
!!!RDT: 1987 September
!!!YER: 1995 March 1
!!!VTS: 
